**harmony	**harte	**kern	**silbe	**rhyme	**timestamp	**phrase
*M4/4	*M4/4	*ICvox	*	*	*	*
*	*	*VRlead	*	*	*	*
*	*	*Hstimme	*	*	*	*
*e:	*e:	*e:	*	*	*e:	*e:
*	*	*M4/4	*	*	*	*
*	*	*clefG2	*	*	*	*
1r;	1r	r;	.	.	0	.
=1	=1	=1	=1	=1	=1	=1
*>A_trans	*>A_trans	*	*	*	*>A_trans	*>A_trans
1Bm	B:sus4(b7)	1r	.	.	1.022	newline
=2	=2	=2	=2	=2	=2	=2
1Bm	B:sus4(b7)	1r	.	.	3.084	.
=3	=3	=3	=3	=3	=3	=3
*>B2_intro	*>B2_intro	*	*	*	*>B2_intro	*>B2_intro
2Em	E:min	1r	.	.	5.146	newline
2AM	A:maj6	.	.	.	6.102	.
=4	=4	=4	=4	=4	=4	=4
2Em	E:min	1r	.	.	7.058	.
2AM	A:maj6	.	.	.	8.014	.
=5	=5	=5	=5	=5	=5	=5
*>A_trans	*>A_trans	*	*	*	*>A_trans	*>A_trans
1Bm	B:sus4(b7)	1r	.	.	8.97	newline
=6	=6	=6	=6	=6	=6	=6
1Bm	B:sus4(b7)	1r	.	.	10.88	.
=7	=7	=7	=7	=7	=7	=7
*>B2_instrumental	*>B2_instrumental	*	*	*	*>B2_instrumental	*>B2_instrumental
2Em	E:min	1r	.	.	12.789	newline
2AM	A:maj6	.	.	.	13.746	.
=8	=8	=8	=8	=8	=8	=8
2Em	E:min	1r	.	.	14.702	.
2AM	A:maj6	.	.	.	15.658	.
=9	=9	=9	=9	=9	=9	=9
2Em	E:min	1r	.	.	16.614	.
2AM	A:maj6	.	.	.	17.571	.
=10	=10	=10	=10	=10	=10	=10
2Em	E:min	1r	.	.	18.527	.
2AM	A:maj6	.	.	.	19.483	.
=11	=11	=11	=11	=11	=11	=11
*>B_verse	*>B_verse	*	*	*	*>B_verse	*>B_verse
2Em	E:min	8g	God-	.	20.439	newline
.	.	8g	-dess	.	.	.
.	.	8f#	on	.	.	.
.	.	8e	the	.	.	.
2AM	A:maj6	8e	moun-	.	21.386	.
.	.	8d	-tain	.	.	.
.	.	8e	_	.	.	.
.	.	8e	top	.	.	.
=12	=12	=12	=12	=12	=12	=12
2Em	E:min	1r	.	.	22.334	.
2AM	A:maj6	.	.	.	23.281	.
=13	=13	=13	=13	=13	=13	=13
2Em	E:min	8g	bur-	.	24.228	.
.	.	8g	-ning	.	.	.
.	.	8f#	like	.	.	.
.	.	8e	a	.	.	.
2AM	A:maj6	8e	sil-	.	25.175	.
.	.	4e	-ver	.	.	.
.	.	8e	flame	A	.	.
=14	=14	=14	=14	=14	=14	=14
2Em	E:min	2r	.	.	26.122	.
2AM	A:maj6	4r	.	.	27.07	.
.	.	8r	.	.	.	.
.	.	8e	the	.	.	.
=15	=15	=15	=15	=15	=15	=15
2Em	E:min	8g	sum-	.	28.017	newline
.	.	8g	-mit	.	.	.
.	.	8f#	of	.	.	.
.	.	4e	beau-	.	.	.
2AM	A:maj6	.	.	.	28.972	.
.	.	8e	-ty	.	.	.
.	.	8e	and	.	.	.
.	.	8e	love	.	.	.
=16	=16	=16	=16	=16	=16	=16
2Em	E:min	2r	.	.	29.928	.
2AM	A:maj6	4r	.	.	30.883	.
.	.	8r	.	.	.	.
.	.	8e	and	.	.	.
=17	=17	=17	=17	=17	=17	=17
2Em	E:min	8g	Ve-	.	31.839	.
.	.	8g	-nus	.	.	.
.	.	8f#	was	.	.	.
.	.	8e	her	.	.	.
2AM	A:maj6	8e	name	A	32.794	.
.	.	8f#	_	.	.	.
.	.	4r	.	.	.	.
=18	=18	=18	=18	=18	=18	=18
1Em	E:min	2r	.	.	33.75	.
.	.	4r	.	.	.	.
.	.	8r	.	.	.	.
.	.	8g	She's	.	.	.
=19	=19	=19	=19	=19	=19	=19
*>C_chorus	*>C_chorus	*	*	*	*>C_chorus	*>C_chorus
2Amm	A:min7	8a	got	.	35.661	newline
.	.	4a	it	.	.	.
.	.	8r	.	.	.	.
2DM	D:maj6	2r	.	.	36.616	.
=20	=20	=20	=20	=20	=20	=20
2Amm	A:min7	4r	.	.	37.572	.
.	.	8a	Yeah	.	.	.
.	.	4a	ba-	.	.	.
2DM	D:maj6	.	.	.	38.527	.
.	.	8g	-by	.	.	.
.	.	4a	she's	.	.	.
=21	=21	=21	=21	=21	=21	=21
2Em	E:min	8g	got	.	39.483	.
.	.	4e	it	.	.	.
.	.	8r	.	.	.	.
2AM	A:maj6	2r	.	.	40.438	.
=22	=22	=22	=22	=22	=22	=22
2Em	E:min	1r	.	.	41.394	.
2AM	A:maj6	.	.	.	42.349	.
=23	=23	=23	=23	=23	=23	=23
1CM	C:maj	8r	.	.	43.305	newline
.	.	4g	I'm	.	.	.
.	.	8e	your	.	.	.
.	.	8e	Ve-	.	.	.
.	.	8g	-nus	.	.	.
.	.	4r	.	.	.	.
=24	=24	=24	=24	=24	=24	=24
2Bm	B:sus4(b7)	8r	.	.	45.221	.
.	.	4b	I'm	.	.	.
.	.	8b	your	.	.	.
2BMm	B:7	8a	fi-	(B	46.179	.
.	.	8b	-re	b)	.	.
.	.	8e	at	.	.	.
.	.	[8g	your	.	.	.
=25	=25	=25	=25	=25	=25	=25
2Em	E:min	8g]	_	.	47.137	.
.	.	8e	de-	.	.	.
.	.	8d	-si-	(B	.	.
.	.	8e	-re	b)	.	.
2AM	A:maj6	2r	.	.	48.095	.
=26	=26	=26	=26	=26	=26	=26
2Em	E:min	2r	.	.	49.054	.
2AM	A:maj6	4r	.	.	50.012	.
.	.	4e	Well	.	.	.
=27	=27	=27	=27	=27	=27	=27
1CM	C:maj	8r	.	.	50.97	newline
.	.	4g	I'm	.	.	.
.	.	8e	your	.	.	.
.	.	8e	Ve-	.	.	.
.	.	8g	-nus	.	.	.
.	.	4r	.	.	.	.
=28	=28	=28	=28	=28	=28	=28
2Bm	B:sus4(b7)	8r	.	.	52.881	.
.	.	4b	I'm	.	.	.
.	.	8b	your	.	.	.
2BMm	B:7	8a	fi-	(B	53.836	.
.	.	8b	-re	b)	.	.
.	.	8e	at	.	.	.
.	.	[8g	your	.	.	.
=29	=29	=29	=29	=29	=29	=29
2Em	E:min	8g]	_	.	54.792	.
.	.	8e	de-	.	.	.
.	.	8d	-si-	(B	.	.
.	.	8e	-re	b)	.	.
2AM	A:maj6	2r	.	.	55.747	.
=30	=30	=30	=30	=30	=30	=30
2Em	E:min	2r	.	.	56.703	.
2AM	A:maj6	4r	.	.	57.659	.
.	.	8r	.	.	.	.
.	.	8e	Her	.	.	.
=31	=31	=31	=31	=31	=31	=31
*>B_verse	*>B_verse	*	*	*	*>B_verse	*>B_verse
2Em	E:min	8g	wea-	.	58.614	newline
.	.	8g	-pons	.	.	.
.	.	8f#	were	.	.	.
.	.	8d	her	.	.	.
2AM	A:maj6	8e	cry-	.	59.566	.
.	.	4e	-stal	.	.	.
.	.	8e	eyes	.	.	.
=32	=32	=32	=32	=32	=32	=32
2Em	E:min	1r	.	.	60.518	.
2AM	A:maj6	.	.	.	61.471	.
=33	=33	=33	=33	=33	=33	=33
2Em	E:min	8g	ma-	.	62.423	.
.	.	8g	-king	.	.	.
.	.	8g	ev'-	.	.	.
.	.	8a	-ry	.	.	.
2AM	A:maj6	8f#	man	.	63.375	.
.	.	4d	_	.	.	.
.	.	8e	mad	C	.	.
=34	=34	=34	=34	=34	=34	=34
2Em	E:min	1r	.	.	64.327	.
2AM	A:maj6	.	.	.	65.279	.
=35	=35	=35	=35	=35	=35	=35
2Em	E:min	8g	black	.	66.232	newline
.	.	8g	as	.	.	.
.	.	8g	the	.	.	.
.	.	8g	dark	.	.	.
2AM	A:maj6	8f#	_	.	67.189	.
.	.	4e	night	.	.	.
.	.	[8f#	she	.	.	.
=36	=36	=36	=36	=36	=36	=36
2Em	E:min	8f#]	_	.	68.147	.
.	.	8e	was	.	.	.
.	.	4r	.	.	.	.
2AM	A:maj6	8r	.	.	69.105	.
.	.	8g	got	.	.	.
.	.	8g	what	.	.	.
.	.	[8g	no	.	.	.
=37	=37	=37	=37	=37	=37	=37
2Em	E:min	8g]	_	.	70.062	.
.	.	8g	one	.	.	.
.	.	8f#	else	.	.	.
.	.	8e	_	.	.	.
2AM	A:maj6	8e	had	C	71.02	.
.	.	8r	.	.	.	.
.	.	4r	.	.	.	.
=38	=38	=38	=38	=38	=38	=38
1Em	E:min	2r	.	.	71.978	.
.	.	4r	.	.	.	.
.	.	8r	.	.	.	.
.	.	8g	She's	.	.	.
=39	=39	=39	=39	=39	=39	=39
*>C_chorus	*>C_chorus	*	*	*	*>C_chorus	*>C_chorus
2Amm	A:min7	8a	got	.	73.893	newline
.	.	8a	it	.	.	.
.	.	4r	.	.	.	.
2DM	D:maj6	2r	.	.	74.849	.
=40	=40	=40	=40	=40	=40	=40
2Amm	A:min7	4r	.	.	75.804	.
.	.	8a	Yeah	.	.	.
.	.	4a	ba-	.	.	.
2DM	D:maj6	.	.	.	76.76	.
.	.	8g	-by	.	.	.
.	.	4a	she's	.	.	.
=41	=41	=41	=41	=41	=41	=41
2Em	E:min	8g	got	.	77.715	.
.	.	8e	it	.	.	.
.	.	4r	.	.	.	.
2AM	A:maj6	2r	.	.	78.671	.
=42	=42	=42	=42	=42	=42	=42
2Em	E:min	1r	.	.	79.626	.
2AM	A:maj6	.	.	.	80.581	.
=43	=43	=43	=43	=43	=43	=43
1CM	C:maj	8r	.	.	81.537	newline
.	.	4g	I'm	.	.	.
.	.	8e	your	.	.	.
.	.	8e	Ve-	.	.	.
.	.	8g	-nus	.	.	.
.	.	4r	.	.	.	.
=44	=44	=44	=44	=44	=44	=44
2Bm	B:sus4(b7)	8r	.	.	83.443	.
.	.	4b	I'm	.	.	.
.	.	8b	your	.	.	.
2BMm	B:7	8a	fi-	(B	84.396	.
.	.	8b	-re	b)	.	.
.	.	8e	at	.	.	.
.	.	[8g	your	.	.	.
=45	=45	=45	=45	=45	=45	=45
2Em	E:min	8g]	_	.	85.348	.
.	.	8e	de-	.	.	.
.	.	8d	-si-	(B	.	.
.	.	8e	-re	b)	.	.
2AM	A:maj6	2r	.	.	86.301	.
=46	=46	=46	=46	=46	=46	=46
2Em	E:min	2r	.	.	87.254	.
2AM	A:maj6	4r	.	.	88.207	.
.	.	4e	Well	.	.	.
=47	=47	=47	=47	=47	=47	=47
1CM	C:maj	8r	.	.	89.16	newline
.	.	4g	I'm	.	.	.
.	.	8e	your	.	.	.
.	.	8e	Ve-	.	.	.
.	.	8g	-nus	.	.	.
.	.	4r	.	.	.	.
=48	=48	=48	=48	=48	=48	=48
2Bm	B:sus4(b7)	8r	.	.	91.07	.
.	.	4b	I'm	.	.	.
.	.	8b	your	.	.	.
2BMm	B:7	8a	fi-	(B	92.025	.
.	.	8b	-re	b)	.	.
.	.	8e	at	.	.	.
.	.	[8g	your	.	.	.
=49	=49	=49	=49	=49	=49	=49
2Em	E:min	8g]	_	.	92.98	.
.	.	8e	de-	.	.	.
.	.	8d	-si-	(B	.	.
.	.	8e	-re	b)	.	.
2AM	A:maj6	2r	.	.	93.935	.
=50	=50	=50	=50	=50	=50	=50
2Em	E:min	1r	.	.	94.889	.
2AM	A:maj6	.	.	.	95.844	.
=51	=51	=51	=51	=51	=51	=51
*>A_trans	*>A_trans	*	*	*	*>A_trans	*>A_trans
1Bm	B:sus4(b7)	1r	.	.	96.799	newline
=52	=52	=52	=52	=52	=52	=52
1Bm	B:sus4(b7)	1r	.	.	98.722	.
=53	=53	=53	=53	=53	=53	=53
*>B_solo	*>B_solo	*	*	*	*>B_solo	*>B_solo
2Em	E:min	1r	.	.	100.645	newline
2AM	A:maj6	.	.	.	101.597	.
=54	=54	=54	=54	=54	=54	=54
2Em	E:min	1r	.	.	102.549	.
2AM	A:maj6	.	.	.	103.501	.
=55	=55	=55	=55	=55	=55	=55
2Em	E:min	1r	.	.	104.452	.
2AM	A:maj6	.	.	.	105.404	.
=56	=56	=56	=56	=56	=56	=56
2Em	E:min	1r	.	.	106.356	.
2AM	A:maj6	.	.	.	107.308	.
=57	=57	=57	=57	=57	=57	=57
2Em	E:min	1r	.	.	108.26	newline
2AM	A:maj6	.	.	.	109.217	.
=58	=58	=58	=58	=58	=58	=58
2Em	E:min	1r	.	.	110.174	.
2AM	A:maj6	.	.	.	111.13	.
=59	=59	=59	=59	=59	=59	=59
2Em	E:min	1r	.	.	112.087	.
2AM	A:maj6	.	.	.	113.044	.
=60	=60	=60	=60	=60	=60	=60
1Em	E:min	8e	(Ve-	.	114.001	.
.	.	8e	-nus)	.	.	.
.	.	2r	.	.	.	.
.	.	8r	.	.	.	.
.	.	8g	She's	.	.	.
=61	=61	=61	=61	=61	=61	=61
*>C_chorus	*>C_chorus	*	*	*	*>C_chorus	*>C_chorus
2Amm	A:min7	8a	got	.	115.914	newline
.	.	8a	it	.	.	.
.	.	4r	.	.	.	.
2DM	D:maj6	2r	.	.	116.867	.
=62	=62	=62	=62	=62	=62	=62
2Amm	A:min7	4r	.	.	117.82	.
.	.	8a	Yeah	.	.	.
.	.	4a	ba-	.	.	.
2DM	D:maj6	.	.	.	118.773	.
.	.	8g	-by	.	.	.
.	.	4a	she's	.	.	.
=63	=63	=63	=63	=63	=63	=63
2Em	E:min	8g	got	.	119.726	.
.	.	8e	it	.	.	.
.	.	4r	.	.	.	.
2AM	A:maj6	2r	.	.	120.679	.
=64	=64	=64	=64	=64	=64	=64
2Em	E:min	1r	.	.	121.632	.
2AM	A:maj6	.	.	.	122.585	.
=65	=65	=65	=65	=65	=65	=65
1CM	C:maj	8r	.	.	123.538	newline
.	.	4g	I'm	.	.	.
.	.	8e	your	.	.	.
.	.	8e	Ve-	.	.	.
.	.	8g	-nus	.	.	.
.	.	4r	.	.	.	.
=66	=66	=66	=66	=66	=66	=66
2Bm	B:sus4(b7)	8r	.	.	125.453	.
.	.	4b	I'm	.	.	.
.	.	8b	your	.	.	.
2BMm	B:7	8a	fi-	(B	126.411	.
.	.	8b	-re	b)	.	.
.	.	8e	at	.	.	.
.	.	[8g	your	.	.	.
=67	=67	=67	=67	=67	=67	=67
2Em	E:min	8g]	_	.	127.368	.
.	.	8e	de-	.	.	.
.	.	8d	-si-	(B	.	.
.	.	8e	-re	b)	.	.
2AM	A:maj6	2r	.	.	128.325	.
=68	=68	=68	=68	=68	=68	=68
2Em	E:min	2r	.	.	129.283	.
2AM	A:maj6	4r	.	.	130.24	.
.	.	4e	Well	.	.	.
=69	=69	=69	=69	=69	=69	=69
1CM	C:maj	8r	.	.	131.197	newline
.	.	4g	I'm	.	.	.
.	.	8e	your	.	.	.
.	.	8e	Ve-	.	.	.
.	.	8g	-nus	.	.	.
.	.	4r	.	.	.	.
=70	=70	=70	=70	=70	=70	=70
2Bm	B:sus4(b7)	8r	.	.	133.102	.
.	.	4b	I'm	.	.	.
.	.	8b	your	.	.	.
2BMm	B:7	8a	fi-	(B	134.054	.
.	.	8b	-re	b)	.	.
.	.	8e	at	.	.	.
.	.	[8g	your	.	.	.
=71	=71	=71	=71	=71	=71	=71
2Em	E:min	8g]	_	.	135.007	.
.	.	8e	de-	.	.	.
.	.	8d	-si-	(B	.	.
.	.	8e	-re	b)	.	.
2AM	A:maj6	2r	.	.	135.959	.
=72	=72	=72	=72	=72	=72	=72
2Em	E:min	1r	.	.	136.911	.
2AM	A:maj6	.	.	.	137.864	.
=73	=73	=73	=73	=73	=73	=73
*>B_verse	*>B_verse	*	*	*	*>B_verse	*>B_verse
2Em	E:min	8g	God-	.	138.816	newline
.	.	8g	-dess	.	.	.
.	.	8f#	on	.	.	.
.	.	8e	the	.	.	.
2AM	A:maj	8e	moun-	.	139.775	.
.	.	8d	-tain	.	.	.
.	.	8e	_	.	.	.
.	.	8e	top	.	.	.
=74	=74	=74	=74	=74	=74	=74
2Emm	E:min7	1r	.	.	140.734	.
2AM	A:maj	.	.	.	141.693	.
=75	=75	=75	=75	=75	=75	=75
2Em	E:min	8g	bur-	.	142.652	.
.	.	8g	-ning	.	.	.
.	.	8f#	like	.	.	.
.	.	8e	a	.	.	.
2AM	A:maj	8e	sil-	.	143.61	.
.	.	4e	-ver	.	.	.
.	.	8e	flame	A	.	.
=76	=76	=76	=76	=76	=76	=76
2Emm	E:min7	2r	.	.	144.569	.
2AM	A:maj	4r	.	.	145.528	.
.	.	8r	.	.	.	.
.	.	8e	the	.	.	.
=77	=77	=77	=77	=77	=77	=77
2Em	E:min	8g	sum-	.	146.487	newline
.	.	8g	-mit	.	.	.
.	.	8f#	of	.	.	.
.	.	4e	beau-	.	.	.
2AM	A:maj	.	.	.	147.441	.
.	.	8e	-ty	.	.	.
.	.	8e	and	.	.	.
.	.	8e	love	.	.	.
=78	=78	=78	=78	=78	=78	=78
2Emm	E:min7	2r	.	.	148.395	.
2AM	A:maj	4r	.	.	149.349	.
.	.	8r	.	.	.	.
.	.	8e	and	.	.	.
=79	=79	=79	=79	=79	=79	=79
2Em	E:min	8g	Ve-	.	150.303	.
.	.	8g	-nus	.	.	.
.	.	8f#	was	.	.	.
.	.	8e	her	.	.	.
2AM	A:maj	8e	name	A	151.257	.
.	.	8f#	_	.	.	.
.	.	4r	.	.	.	.
=80	=80	=80	=80	=80	=80	=80
2Emm	E:min7	2r	.	.	152.211	.
2AM	A:maj	4r	.	.	153.165	.
.	.	8r	.	.	.	.
.	.	8g	She's	.	.	.
=81	=81	=81	=81	=81	=81	=81
*>C_chorus	*>C_chorus	*	*	*	*>C_chorus	*>C_chorus
2Amm	A:min7	8a	got	.	154.12	newline
.	.	8a	it	.	.	.
.	.	4r	.	.	.	.
2DM	D:maj6	2r	.	.	155.074	.
=82	=82	=82	=82	=82	=82	=82
2Amm	A:min7	4r	.	.	156.028	.
.	.	8a	Yeah	.	.	.
.	.	4a	ba-	.	.	.
2DM	D:maj6	.	.	.	156.982	.
.	.	8g	-by	.	.	.
.	.	4a	she's	.	.	.
=83	=83	=83	=83	=83	=83	=83
2Em	E:min	8g	got	.	157.936	.
.	.	8e	it	.	.	.
.	.	4r	.	.	.	.
2AM	A:maj6	2r	.	.	158.89	.
=84	=84	=84	=84	=84	=84	=84
2Em	E:min	1r	.	.	159.844	.
2AM	A:maj6	.	.	.	160.798	.
=85	=85	=85	=85	=85	=85	=85
1CM	C:maj	8r	.	.	161.752	newline
.	.	4g	I'm	.	.	.
.	.	8e	your	.	.	.
.	.	8e	Ve-	.	.	.
.	.	8g	-nus	.	.	.
.	.	4r	.	.	.	.
=86	=86	=86	=86	=86	=86	=86
2Bm	B:sus4(b7)	8r	.	.	163.663	.
.	.	4b	I'm	.	.	.
.	.	8b	your	.	.	.
2BMm	B:7	8a	fi-	(B	164.619	.
.	.	8b	-re	b)	.	.
.	.	8e	at	.	.	.
.	.	[8g	your	.	.	.
=87	=87	=87	=87	=87	=87	=87
2Em	E:min	8g]	_	.	165.575	.
.	.	8e	de-	.	.	.
.	.	8d	-si-	(B	.	.
.	.	8e	-re	b)	.	.
2AM	A:maj6	2r	.	.	166.53	.
=88	=88	=88	=88	=88	=88	=88
2Em	E:min	2r	.	.	167.486	.
2AM	A:maj6	4r	.	.	168.441	.
.	.	4e	Well	.	.	.
=89	=89	=89	=89	=89	=89	=89
1CM	C:maj	8r	.	.	169.397	newline
.	.	4g	I'm	.	.	.
.	.	8e	your	.	.	.
.	.	8e	Ve-	.	.	.
.	.	8g	-nus	.	.	.
.	.	4r	.	.	.	.
=90	=90	=90	=90	=90	=90	=90
2Bm	B:sus4(b7)	8r	.	.	171.311	.
.	.	4b	I'm	.	.	.
.	.	8b	your	.	.	.
2BMm	B:7	8a	fi-	(B	172.268	.
.	.	8b	-re	b)	.	.
.	.	8e	at	.	.	.
.	.	[8g	your	.	.	.
=91	=91	=91	=91	=91	=91	=91
2Em	E:min	8g]	_	.	173.225	.
.	.	8e	de-	.	.	.
.	.	8d	-si-	(B	.	.
.	.	8e	-re	b)	.	.
2AM	A:maj6	2r	.	.	174.182	.
=92	=92	=92	=92	=92	=92	=92
2Em	E:min	1r	.	.	175.139	.
2AM	A:maj6	.	.	.	176.096	.
=93	=93	=93	=93	=93	=93	=93
*>A2_trans	*>A2_trans	*	*	*	*>A2_trans	*>A2_trans
1Bm	B:sus4(b7)	2r	.	.	177.053	newline
.	.	4r	.	.	.	.
.	.	8r	.	.	.	.
.	.	[8d	(Ve-	.	.	.
=94	=94	=94	=94	=94	=94	=94
1Bm	B:sus4(b7)	8d]	_	.	178.964	.
.	.	8d	nus	.	.	.
.	.	8c#	was	.	.	.
.	.	8B	her	.	.	.
.	.	8B	name)	.	.	.
.	.	8c#	_	.	.	.
.	.	8r	.	.	.	.
.	.	8r	.	.	.	.
=95	=95	=95	=95	=95	=95	=95
1Bm	B:sus4(b7)	1r	.	.	180.876	.
=96	=96	=96	=96	=96	=96	=96
1Bm	B:sus4(b7)	1r	.	.	182.787	.
=97	=97	=97	=97	=97	=97	=97
*>B2_outro	*>B2_outro	*	*	*	*>B2_outro	*>B2_outro
2Em	E:min	1r	.	.	184.699	newline
2AM	A:maj6	.	.	.	185.657	.
=98	=98	=98	=98	=98	=98	=98
2Em	E:min	4r	.	.	186.615	.
.	.	8a	Yeah	.	.	.
.	.	4a	ba-	.	.	.
2AM	A:maj6	.	.	.	187.573	.
.	.	8g	-by	.	.	.
.	.	4a	she's	.	.	.
=99	=99	=99	=99	=99	=99	=99
2Em	E:min	8g	got	.	188.531	.
.	.	8e	it	.	.	.
.	.	4r	.	.	.	.
2AM	A:maj6	2r	.	.	189.489	.
=100	=100	=100	=100	=100	=100	=100
2Em	E:min	4r	.	.	190.448	.
.	.	8a	Yeah	.	.	.
.	.	4a	ba-	.	.	.
2AM	A:maj6	.	.	.	191.406	.
.	.	8g	-by	.	.	.
.	.	4a	she's	.	.	.
=101	=101	=101	=101	=101	=101	=101
2Em	E:min	8g	got	.	192.364	newline
.	.	8e	it	.	.	.
.	.	4r	.	.	.	.
2AM	A:maj6	2r	.	.	193.307	.
=102	=102	=102	=102	=102	=102	=102
2Em	E:min	4r	.	.	194.251	.
.	.	8a	Yeah	.	.	.
.	.	4a	ba-	.	.	.
2AM	A:maj6	.	.	.	195.194	.
.	.	8g	-by	.	.	.
.	.	4a	she's	.	.	.
=103	=103	=103	=103	=103	=103	=103
2Em	E:min	8g	got	.	196.138	.
.	.	8e	it	.	.	.
.	.	4r	.	.	.	.
2AM	A:maj6	2r	.	.	197.081	.
=104	=104	=104	=104	=104	=104	=104
2Em	E:min	4r	.	.	198.024	.
.	.	8a	Yeah	.	.	.
.	.	4a	ba-	.	.	.
2AM	A:maj6	.	.	.	198.968	.
.	.	8g	-by	.	.	.
.	.	4a	she's	.	.	.
=105	=105	=105	=105	=105	=105	=105
*>_fadeout	*>_fadeout	*	*	*	*>_fadeout	*>_fadeout
2Em	E:min	8g	got	.	199.911	newline
.	.	8e	it	.	.	.
.	.	4r	.	.	.	.
2AM	A:maj6	2r	.	.	200.872	.
=106	=106	=106	=106	=106	=106	=106
2Em	E:min	4r	.	.	201.832	.
.	.	8a	Yeah	.	.	.
.	.	4a	ba-	.	.	.
2AM	A:maj6	.	.	.	202.793	.
.	.	8g	-by	.	.	.
.	.	4a	she's	.	.	.
=107	=107	=107	=107	=107	=107	=107
2Em	E:min	8g	got	.	203.754	.
.	.	8e	it	.	.	.
.	.	4r	.	.	.	.
2AM	A:maj6	2r	.	.	204.714	.
=108	=108	=108	=108	=108	=108	=108
2Em	E:min	4r	.	.	205.675	.
.	.	8a	Yeah	.	.	.
.	.	4a	ba-	.	.	.
2AM	A:maj6	.	.	.	206.635	.
.	.	8g	-by	.	.	.
.	.	4a	she's	.	.	.
=109	=109	=109	=109	=109	=109	=109
2Em	E:min	8g	got	.	207.596	newline
.	.	8e	it	.	.	.
.	.	4r	.	.	.	.
2AM	A:maj6	2r	.	.	208.562	.
=110	=110	=110	=110	=110	=110	=110
2Em	E:min	4r	.	.	209.528	.
.	.	8a	Yeah	.	.	.
.	.	4a	ba-	.	.	.
2AM	A:maj6	.	.	.	210.494	.
.	.	8g	-by	.	.	.
.	.	4a	she's	.	.	.
=111	=111	=111	=111	=111	=111	=111
2Em	E:min	8g	got	.	211.46	.
.	.	8e	it	.	.	.
.	.	4r	.	.	.	.
2AM	A:maj6	2r	.	.	212.426	.
=112	=112	=112	=112	=112	=112	=112
2Em	E:min	1r	.	.	213.392	.
2AM	A:maj6	.	.	.	214.357	.
1r;	1r	r;	.	.	217.014	.
1r;	1r	r;	.	.	222.302	.
*-	*-	*-	*-	*-	*-	*-
!!!BillboardChartDate: 1986/11/01
!!!BillboardPeak: 1
!!!BillboardWeeksOnChart: 19
!!!COC: Bananarama
!!!ENC: Nathaniel Condit-Schultz
!!!EST: Awating manual error checking and editing.
!!!OTL: Venus
!!!RDF**chordsym: original McGill chord annotation + (implied pitch class set, with bass pitch in first position)
!!!RDF**harmony: **recip + pitch class of root + harmonic quality
!!!RDF**leadinstrument: original McGill primary instrumentation annotation
!!!RDF**phrase: newline = linebreak in original McGill transcription
!!!RDF**timestamp: McGill audio timestamp in seconds
!!!RDT: 2017/01/12/
!!!SampleActualRank: 99
!!!SampleID#: 0981
!!!SampleTargetRank: 97
!!!MBID: 2a24f995-1f22-4c78-86c3-10f4590a4ba7